!! 00008] TT[TB
!! Eigene Aufnahme
!!!OTL: Gadameiling
!!!ARE: Mongulei, Zelimumeng
!! Ethnic Group: Menggu
!! IV, 290
!!!SCT: C0184
!!!YEM: Copyright 1995, estate of Helmut Schaffrath.
**kern
*ICvox
*Ivox
*M4/4
*k[b-]
*F:
{4d
4a
4a
8g
8a
=1
4cc
4dd
4f
4d}
=2
{4g
8a
8g
4f
4d
=3
4.g
8a
4cc
4ff
=4
1dd}
=5
{4cc
4dd
4cc
8a
8cc
=6
4cc
4dd
4f
4d}
=7
{4f
8d
8f
4c
4d
=8
4g
8g
8a
4cc
4f
=9
1d}
==
!!!AGN: Duan diao; xu shi ge
!!    ethnisch - nationale Geschichte betreffend
!! Sehr bekannt. Viele haben zu dieser Melodie neue Texte
!!    geschrieben. Diese Melodie erscheint auch in sinfonischen
!!    Dichtungen und einem Violinkonzert (z.B. San Tong).
!!    Erzaehlt wird die Geschichte eines Bauernaufstandes gegen die
!!    Qin-Dynastie. Gadameiling ist der Anfuehrer. Zwischen den Strophen
!!    koennen Geschichten erzaehlt werden; alles kann dann eine
!!    Ewigkeit dauern. In dem Falle mit Sihu begleitet.
!!    STARKES NETZBRUNMMEN. DAHER NEU AUFGENOMMEN.
!!    Saenger: Chao Lun Batou, 2 Strophen.
!!    Pinyin-Text der ersten Strophe vorhanden!
!!!ONB: ESAC (Essen Associative Code) Database: CHINA_022
!!!AMT: simple quadruple
!!!AIN: vox
!!!EED: Helmut Schaffrath
!!!EEV: 1.0
*-
